X:2861
T:Irish Mazurka, The
T:Old Donegal Mazurka, The
T:Charlie Lennon's
O:england
R:mazurka
H:A version of #1
D:Stockton's Wing
D:Hugh Gillespie
M:3/4
K:G
DG|B2 BA GB|d2 dB AB|c2 ce dc|(3Bcd g2 DG|
B2 BA GB|d2 dB AB|c2 cA FA|1 G4:|2 G3 ggf||
|:e2 ce ce|d2 dB AB|c2 cA FA|B2 B ggf|
e2 ce ce|d2 dB AB|c2 cA FA|1 G3 ggf:|2 G4||
"variations"
|:DG|B2 BA GB|d2 dB AB|c2 cA FA|(3Bcd g2 DG|
B2 BA GB|d2 dB AB|c2 cA FA|1 G4:|2 G3 ggf||
|:e2 ce ce|d2 dB AB|c2 cA FA|B2 B ggf|
e2 ce ce|d2 dB AB|c2 cA FA|1 G3 ggf:|2 G4||
"Hugh Gillespie's version:"
|:DG|B2 BA GB|d2 d2 AB|c2 ce dc|B2 B2 DG|
B2 BA GB|d2 d2 AB|cB cA EF|G4:|
|:gf|e2 ef (3gfe|d2 d2 AB|c2 ce dc|B2 B2 gf|
e2 ef (3gfe|d2 d2 AB|cB cA EF|G4:|


